actions/16/edit-select.svg

<svg xmlns="http://www.w3.org/2000/svg" viewBox="0 0 16 16">
  <defs id="defs3051">
    <style type="text/css" id="current-color-scheme">
      .ColorScheme-Text {
        color:#808080;
      }
      </style>
  </defs>
 <path style="fill:currentColor;fill-opacity:1;stroke:none" 
     d="m4.75 2c-.393 0-.75.357-.75.75 0 .393.357.75.75.75.393 0 .75-.357.75-.75 0-.393-.357-.75-.75-.75m.75 2.25l.005 9.75 2.995-4h4.5z"
     class="ColorScheme-Text"
     />
</svg>

<svg xmlns="http://www.w3.org/2000/svg" version="1.1" viewBox="0 0 16 16">
 <defs>
  <style id="current-color-scheme" type="text/css">
   .ColorScheme-Text { color:#808080; }
  </style>
 </defs>
 <path class="ColorScheme-Text" d="M 4.75,2 C 4.357,2 4,2.357 4,2.75 4,3.143 4.357,3.5 4.75,3.5 5.143,3.5 5.5,3.143 5.5,2.75 5.5,2.357 5.143,2 4.75,2 M 5.5,4.25 5.505,14 8.5,10 H 13 Z" style="color:#808080;fill:currentColor"/>
</svg>
